X: 29695
T: Nova Scotia, The
R: jig
M: 6/8
K: Gmajor
BA|:GDB, DGB|d^ce dBG|~c3 AB^c|ded B2A|
GDB, DGB|d^ce dBG|~c3 AB^c|1 dAF GBA:|2 dAF GBd||
~g3 Bdg|bag fed|~c3 AB^c|ded B2d|
~g3 Bdg|bag fed|~c3 ABc|1 dAF GBd:|2 dAF GBA||

